src/img/HomePage/Logo/TheCult.svg

<?xml version="1.0" encoding="UTF-8"?> <svg xmlns="http://www.w3.org/2000/svg" width="61" height="37" viewBox="0 0 61 37" fill="none"> <path d="M5.5129 26.4765H2.58145V2.97259H1V0.319526H7.09435V2.97259H5.5129V26.4765Z" fill="#201B19"></path> <path d="M11.8544 26.4765H8.88432V0.319526H11.8544V11.5296H13.1658V0.319526H16.1358V26.4765H13.1658V14.2201H11.8544V26.4765Z" fill="#201B19"></path> <path d="M21.3843 3.00995V11.5296H23.39V14.2201H21.3843V23.786H23.9686V26.4765H18.4143V0.319526H23.9686V3.00995H21.3843Z" fill="#201B19"></path> <path d="M33.1358 3.64519V23.1508C33.1358 23.4746 33.1615 23.6988 33.2129 23.8234C33.2901 23.923 33.4443 23.9729 33.6758 23.9729H33.8686C34.1001 23.9729 34.2543 23.923 34.3315 23.8234C34.4086 23.6988 34.4472 23.4746 34.4472 23.1508V15.0795H37.1858V23.4871C37.1858 24.7327 36.9929 25.5797 36.6072 26.0281C36.2215 26.4516 35.4501 26.6633 34.2929 26.6633H33.0972C31.94 26.6633 31.1557 26.4516 30.7443 26.0281C30.3586 25.5797 30.1657 24.7327 30.1657 23.4871V3.30889C30.1657 2.06332 30.3586 1.22879 30.7443 0.805298C31.1557 0.356893 31.94 0.13269 33.0972 0.13269H34.2929C35.4501 0.13269 36.2215 0.356893 36.6072 0.805298C36.9929 1.22879 37.1858 2.06332 37.1858 3.30889V10.5955H34.4472V3.64519C34.4472 3.32135 34.4086 3.1096 34.3315 3.00995C34.2543 2.8854 34.1001 2.82312 33.8686 2.82312H33.6758C33.4443 2.82312 33.2901 2.8854 33.2129 3.00995C33.1615 3.1096 33.1358 3.32135 33.1358 3.64519Z" fill="#201B19"></path> <path d="M42.3644 0.319526V23.1508C42.3644 23.4746 42.4029 23.6988 42.4801 23.8234C42.5572 23.923 42.7115 23.9729 42.943 23.9729H43.0972C43.3287 23.9729 43.483 23.923 43.5601 23.8234C43.6372 23.6988 43.6758 23.4746 43.6758 23.1508V0.319526H46.453V23.4871C46.453 24.7327 46.2473 25.5797 45.8358 26.0281C45.4501 26.4516 44.6787 26.6633 43.5215 26.6633H42.3258C41.1687 26.6633 40.3844 26.4516 39.9729 26.0281C39.5872 25.5797 39.3943 24.7327 39.3943 23.4871V0.319526H42.3644Z" fill="#201B19"></path> <path d="M48.6992 26.4765V0.319526H51.6692V23.786H53.8678V26.4765H48.6992Z" fill="#201B19"></path> <path d="M58.7752 26.4765H55.8437V2.97259H54.2623V0.319526H60.3566V2.97259H58.7752V26.4765Z" fill="#201B19"></path> <path d="M0.60701 33.7346C0.60701 34.5215 1.08546 35.0755 1.95423 35.0755C2.76633 35.0755 3.31403 34.5593 3.31403 33.7409V30.4484H2.69708V33.7157C2.69708 34.1879 2.47045 34.5027 1.95423 34.5027C1.45059 34.5027 1.20507 34.1816 1.20507 33.7346V33.508H0.60701V33.7346ZM5.14157 35.0755C5.6389 35.0755 6.06069 34.8552 6.21808 34.5027L6.28103 35H6.78466V33.0673C6.78466 32.2363 6.26844 31.8334 5.5067 31.8334C4.71348 31.8334 4.18466 32.2552 4.18466 32.8973H4.70089C4.70089 32.5259 4.98418 32.3056 5.48152 32.3056C5.89701 32.3056 6.20549 32.4881 6.20549 33.0044V33.0925L5.236 33.168C4.51203 33.2247 4.09023 33.5772 4.09023 34.1438C4.09023 34.7041 4.48055 35.0755 5.14157 35.0755ZM5.31154 34.616C4.92752 34.616 4.6883 34.4523 4.6883 34.1249C4.6883 33.8228 4.90234 33.6213 5.42486 33.5709L6.21178 33.508V33.6717C6.21178 34.2508 5.87183 34.616 5.31154 34.616ZM7.6042 36.3787H8.19596V34.4964C8.39742 34.8741 8.80662 35.0818 9.29766 35.0818C10.2105 35.0818 10.7267 34.3768 10.7267 33.4387C10.7267 32.4944 10.179 31.8334 9.29766 31.8334C8.80662 31.8334 8.39112 32.0538 8.18337 32.4755L8.13931 31.9216H7.6042V36.3787ZM8.20226 33.4639C8.20226 32.8218 8.56739 32.3748 9.17175 32.3748C9.77611 32.3748 10.1349 32.8281 10.1349 33.4639C10.1349 34.0935 9.77611 34.5467 9.17175 34.5467C8.56739 34.5467 8.20226 34.0935 8.20226 33.4639ZM12.2792 35.0755C12.7766 35.0755 13.1983 34.8552 13.3557 34.5027L13.4187 35H13.9223V33.0673C13.9223 32.2363 13.4061 31.8334 12.6444 31.8334C11.8511 31.8334 11.3223 32.2552 11.3223 32.8973H11.8385C11.8385 32.5259 12.1218 32.3056 12.6192 32.3056C13.0347 32.3056 13.3431 32.4881 13.3431 33.0044V33.0925L12.3736 33.168C11.6497 33.2247 11.2279 33.5772 11.2279 34.1438C11.2279 34.7041 11.6182 35.0755 12.2792 35.0755ZM12.4492 34.616C12.0652 34.616 11.8259 34.4523 11.8259 34.1249C11.8259 33.8228 12.04 33.6213 12.5625 33.5709L13.3494 33.508V33.6717C13.3494 34.2508 13.0095 34.616 12.4492 34.616ZM15.3336 35V33.3695C15.3336 32.7714 15.6547 32.3748 16.2087 32.3748C16.6619 32.3748 16.9515 32.6266 16.9515 33.2499V35H17.5433V33.1177C17.5433 32.3308 17.1719 31.8334 16.3598 31.8334C15.9254 31.8334 15.5351 32.0412 15.3399 32.3937L15.277 31.9216H14.7418V35H15.3336ZM19.6913 35.0755C20.453 35.0755 20.9692 34.7041 21.1203 34.0431H20.5663C20.4656 34.3956 20.1634 34.5845 19.7039 34.5845C19.1184 34.5845 18.7784 34.2257 18.7344 33.5772L21.114 33.5709V33.3506C21.114 32.4378 20.5411 31.8334 19.6661 31.8334C18.7721 31.8334 18.1615 32.5007 18.1615 33.4639C18.1615 34.4208 18.7847 35.0755 19.6913 35.0755ZM19.6661 32.3308C20.1886 32.3308 20.5223 32.6707 20.5223 33.1806H18.747C18.8225 32.6392 19.1499 32.3308 19.6661 32.3308ZM21.5232 34.1061C21.5232 34.6915 21.9827 35.0755 22.7067 35.0755C23.437 35.0755 23.9406 34.7041 23.9406 34.1186C23.9406 33.6591 23.6825 33.4199 23.16 33.2939L22.6186 33.1617C22.3164 33.0862 22.1653 32.9477 22.1653 32.74C22.1653 32.4567 22.3731 32.293 22.7445 32.293C23.1033 32.293 23.3111 32.4881 23.3237 32.7966H23.8902C23.8777 32.2111 23.437 31.8334 22.7634 31.8334C22.0835 31.8334 21.605 32.1923 21.605 32.7588C21.605 33.2121 21.8631 33.4828 22.4108 33.615L22.9522 33.7409C23.2733 33.8228 23.374 33.9487 23.374 34.1564C23.374 34.4397 23.1348 34.6097 22.7193 34.6097C22.329 34.6097 22.0898 34.4208 22.0898 34.1061H21.5232ZM25.9252 35.0755C26.6869 35.0755 27.2031 34.7041 27.3542 34.0431H26.8002C26.6995 34.3956 26.3973 34.5845 25.9378 34.5845C25.3523 34.5845 25.0123 34.2257 24.9683 33.5772L27.3479 33.5709V33.3506C27.3479 32.4378 26.7751 31.8334 25.9 31.8334C25.0061 31.8334 24.3954 32.5007 24.3954 33.4639C24.3954 34.4208 25.0186 35.0755 25.9252 35.0755ZM25.9 32.3308C26.4225 32.3308 26.7562 32.6707 26.7562 33.1806H24.9809C25.0564 32.6392 25.3838 32.3308 25.9 32.3308ZM30.448 35V33.1995H31.6126L32.4625 35H33.1487L32.2233 33.0799C32.7899 32.8973 33.1046 32.4441 33.1046 31.8145C33.1046 30.9646 32.5255 30.4484 31.5497 30.4484H29.831V35H30.448ZM30.448 31.0024H31.5497C32.1163 31.0024 32.4562 31.292 32.4562 31.8208C32.4562 32.3433 32.1289 32.6518 31.556 32.6518H30.448V31.0024ZM34.9564 35.0755C35.7181 35.0755 36.2343 34.7041 36.3854 34.0431H35.8314C35.7307 34.3956 35.4285 34.5845 34.969 34.5845C34.3835 34.5845 34.0435 34.2257 33.9995 33.5772L36.3791 33.5709V33.3506C36.3791 32.4378 35.8062 31.8334 34.9312 31.8334C34.0372 31.8334 33.4266 32.5007 33.4266 33.4639C33.4266 34.4208 34.0498 35.0755 34.9564 35.0755ZM34.9312 32.3308C35.4537 32.3308 35.7874 32.6707 35.7874 33.1806H34.0121C34.0876 32.6392 34.415 32.3308 34.9312 32.3308ZM36.7883 34.1061C36.7883 34.6915 37.2478 35.0755 37.9718 35.0755C38.7021 35.0755 39.2057 34.7041 39.2057 34.1186C39.2057 33.6591 38.9476 33.4199 38.4251 33.2939L37.8837 33.1617C37.5815 33.0862 37.4304 32.9477 37.4304 32.74C37.4304 32.4567 37.6382 32.293 38.0096 32.293C38.3684 32.293 38.5762 32.4881 38.5888 32.7966H39.1554C39.1428 32.2111 38.7021 31.8334 38.0285 31.8334C37.3486 31.8334 36.8701 32.1923 36.8701 32.7588C36.8701 33.2121 37.1282 33.4828 37.6759 33.615L38.2173 33.7409C38.5384 33.8228 38.6391 33.9487 38.6391 34.1564C38.6391 34.4397 38.3999 34.6097 37.9844 34.6097C37.5941 34.6097 37.3549 34.4208 37.3549 34.1061H36.7883ZM40.7307 35V32.4189H41.3351V31.9216H40.7307V30.9584H40.139V31.9216H39.5346V32.4189H40.139V35H40.7307ZM42.7295 35.0755C43.2269 35.0755 43.6486 34.8552 43.806 34.5027L43.869 35H44.3726V33.0673C44.3726 32.2363 43.8564 31.8334 43.0947 31.8334C42.3014 31.8334 41.7726 32.2552 41.7726 32.8973H42.2888C42.2888 32.5259 42.5721 32.3056 43.0695 32.3056C43.485 32.3056 43.7934 32.4881 43.7934 33.0044V33.0925L42.8239 33.168C42.1 33.2247 41.6782 33.5772 41.6782 34.1438C41.6782 34.7041 42.0685 35.0755 42.7295 35.0755ZM42.8995 34.616C42.5155 34.616 42.2762 34.4523 42.2762 34.1249C42.2762 33.8228 42.4903 33.6213 43.0128 33.5709L43.7997 33.508V33.6717C43.7997 34.2508 43.4598 34.616 42.8995 34.616ZM47.32 31.9216V33.5458C47.32 34.2068 47.0241 34.553 46.4827 34.553C46.0294 34.553 45.7461 34.3012 45.7461 33.6402V31.9216H45.1544V33.8354C45.1544 34.5908 45.5573 35.0755 46.275 35.0755C46.7282 35.0755 47.1374 34.8552 47.3137 34.5341L47.3767 35H47.9055V31.9216H47.32ZM50.5268 31.8964C50.4071 31.8712 50.319 31.8586 50.212 31.8586C49.7902 31.8586 49.4817 32.0726 49.3558 32.3937L49.318 31.9278H48.764V35H49.3558V33.3695C49.3558 32.7777 49.7021 32.4378 50.2624 32.4378H50.5268V31.8964ZM51.8591 35.0755C52.3564 35.0755 52.7782 34.8552 52.9356 34.5027L52.9985 35H53.5022V33.0673C53.5022 32.2363 52.9859 31.8334 52.2242 31.8334C51.431 31.8334 50.9022 32.2552 50.9022 32.8973H51.4184C51.4184 32.5259 51.7017 32.3056 52.199 32.3056C52.6145 32.3056 52.923 32.4881 52.923 33.0044V33.0925L51.9535 33.168C51.2295 33.2247 50.8077 33.5772 50.8077 34.1438C50.8077 34.7041 51.1981 35.0755 51.8591 35.0755ZM52.029 34.616C51.645 34.616 51.4058 34.4523 51.4058 34.1249C51.4058 33.8228 51.6198 33.6213 52.1424 33.5709L52.9293 33.508V33.6717C52.9293 34.2508 52.5893 34.616 52.029 34.616ZM54.9135 35V33.3695C54.9135 32.7714 55.2345 32.3748 55.7885 32.3748C56.2418 32.3748 56.5314 32.6266 56.5314 33.2499V35H57.1232V33.1177C57.1232 32.3308 56.7517 31.8334 55.9396 31.8334C55.5052 31.8334 55.1149 32.0412 54.9198 32.3937L54.8568 31.9216H54.3217V35H54.9135ZM58.8116 35V32.4189H59.4159V31.9216H58.8116V30.9584H58.2198V31.9216H57.6154V32.4189H58.2198V35H58.8116Z" fill="#201B19"></path> </svg>

<svg xmlns="http://www.w3.org/2000/svg" width="61" height="37" fill="none"><path d="M5.513 26.477H2.58V2.973H1V.32h6.094v2.653H5.513v23.504ZM11.854 26.477h-2.97V.32h2.97v11.21h1.312V.32h2.97v26.157h-2.97V14.22h-1.312v12.257ZM21.384 3.01v8.52h2.006v2.69h-2.006v9.566h2.585v2.69h-5.555V.32h5.555v2.69h-2.585ZM33.136 3.645v19.506c0 .324.025.548.077.672.077.1.231.15.463.15h.193c.231 0 .385-.05.462-.15.078-.124.116-.348.116-.672v-8.072h2.739v8.408c0 1.246-.193 2.093-.579 2.541-.386.424-1.157.635-2.314.635h-1.196c-1.157 0-1.941-.211-2.353-.635-.385-.448-.578-1.295-.578-2.54V3.307c0-1.245.193-2.08.578-2.503.412-.448 1.196-.672 2.353-.672h1.196c1.157 0 1.928.224 2.314.672.386.424.579 1.258.579 2.504v7.286h-2.739v-6.95c0-.324-.038-.535-.116-.635-.077-.125-.23-.187-.462-.187h-.193c-.232 0-.386.062-.463.187-.052.1-.077.311-.077.635ZM42.364.32v22.83c0 .325.039.549.116.673.077.1.232.15.463.15h.154c.232 0 .386-.05.463-.15.077-.124.116-.348.116-.672V.32h2.777v23.167c0 1.246-.206 2.093-.617 2.541-.386.424-1.157.635-2.314.635h-1.196c-1.157 0-1.942-.211-2.353-.635-.386-.448-.579-1.295-.579-2.54V.32h2.97ZM48.7 26.477V.32h2.97v23.466h2.198v2.69h-5.169ZM58.775 26.477h-2.931V2.973h-1.582V.32h6.095v2.653h-1.582v23.504ZM.607 33.735c0 .787.478 1.34 1.347 1.34.812 0 1.36-.516 1.36-1.334v-3.293h-.617v3.268c0 .472-.227.787-.743.787-.503 0-.749-.321-.749-.768v-.227H.607v.227Zm4.535 1.34c.497 0 .919-.22 1.076-.572l.063.497h.504v-1.933c0-.83-.517-1.234-1.278-1.234-.794 0-1.322.422-1.322 1.064H4.7c0-.371.283-.591.78-.591.416 0 .724.182.724.698v.089l-.969.075c-.724.057-1.146.41-1.146.976 0 .56.39.931 1.052.931Zm.17-.459c-.384 0-.624-.164-.624-.491 0-.302.214-.504.737-.554l.787-.063v.164c0 .579-.34.944-.9.944Zm2.292 1.763h.592v-1.883c.201.378.61.586 1.102.586.912 0 1.429-.705 1.429-1.643 0-.945-.548-1.606-1.43-1.606-.49 0-.906.22-1.114.642l-.044-.553h-.535v4.457Zm.598-2.915c0-.642.365-1.09.97-1.09.604 0 .963.454.963 1.09 0 .63-.359 1.083-.963 1.083-.605 0-.97-.453-.97-1.083Zm4.077 1.611c.498 0 .92-.22 1.077-.572l.063.497h.503v-1.933c0-.83-.516-1.234-1.278-1.234-.793 0-1.322.422-1.322 1.064h.517c0-.371.283-.591.78-.591.416 0 .724.182.724.698v.089l-.97.075c-.723.057-1.145.41-1.145.976 0 .56.39.931 1.051.931Zm.17-.459c-.384 0-.623-.164-.623-.491 0-.302.214-.504.736-.554l.787-.063v.164c0 .579-.34.944-.9.944Zm2.885.384v-1.63c0-.599.32-.995.875-.995.453 0 .742.252.742.875V35h.592v-1.882c0-.787-.371-1.285-1.183-1.285-.435 0-.825.208-1.02.56l-.063-.471h-.535V35h.592Zm4.357.075c.762 0 1.278-.37 1.43-1.032h-.555c-.1.353-.403.541-.862.541-.586 0-.926-.358-.97-1.007l2.38-.006v-.22c0-.913-.573-1.518-1.448-1.518-.894 0-1.505.668-1.505 1.63 0 .958.624 1.612 1.53 1.612Zm-.025-2.744c.523 0 .856.34.856.85h-1.775c.076-.542.403-.85.92-.85Zm1.857 1.775c0 .585.46.97 1.184.97.73 0 1.234-.372 1.234-.957 0-.46-.258-.7-.781-.825l-.541-.132c-.303-.076-.454-.214-.454-.422 0-.283.208-.447.58-.447.358 0 .566.195.579.504h.566c-.012-.586-.453-.964-1.127-.964-.68 0-1.158.36-1.158.926 0 .453.258.724.806.856l.541.126c.321.082.422.208.422.415 0 .284-.24.454-.655.454-.39 0-.63-.19-.63-.504h-.566Zm4.402.97c.762 0 1.278-.372 1.43-1.033H26.8c-.1.353-.403.541-.862.541-.586 0-.926-.358-.97-1.007l2.38-.006v-.22c0-.913-.573-1.518-1.448-1.518-.894 0-1.505.668-1.505 1.63 0 .958.624 1.612 1.53 1.612ZM25.9 32.33c.523 0 .856.34.856.85h-1.775c.075-.542.403-.85.919-.85ZM30.448 35v-1.8h1.165l.85 1.8h.686l-.926-1.92c.567-.183.882-.636.882-1.265 0-.85-.58-1.367-1.555-1.367H29.83V35h.617Zm0-3.998h1.102c.566 0 .906.29.906.819 0 .522-.327.83-.9.83h-1.108v-1.649Zm4.508 4.073c.762 0 1.278-.37 1.43-1.032h-.555c-.1.353-.403.541-.862.541-.586 0-.925-.358-.97-1.007l2.38-.006v-.22c0-.913-.573-1.518-1.448-1.518-.894 0-1.504.668-1.504 1.63 0 .958.623 1.612 1.53 1.612Zm-.025-2.744c.523 0 .856.34.856.85h-1.775c.076-.542.403-.85.92-.85Zm1.857 1.775c0 .585.46.97 1.184.97.73 0 1.234-.372 1.234-.957 0-.46-.258-.7-.78-.825l-.542-.132c-.303-.076-.454-.214-.454-.422 0-.283.208-.447.58-.447.358 0 .566.195.579.504h.566c-.012-.586-.453-.964-1.127-.964-.68 0-1.158.36-1.158.926 0 .453.258.724.806.856l.541.126c.321.082.422.208.422.415 0 .284-.24.454-.655.454-.39 0-.63-.19-.63-.504h-.566Zm3.943.894v-2.581h.604v-.497h-.604v-.964h-.592v.964h-.604v.497h.604V35h.592Zm1.998.075c.498 0 .92-.22 1.077-.572l.063.497h.504v-1.933c0-.83-.517-1.234-1.278-1.234-.794 0-1.322.422-1.322 1.064h.516c0-.371.283-.591.78-.591.416 0 .724.182.724.698v.089l-.97.075c-.723.057-1.145.41-1.145.976 0 .56.39.931 1.052.931Zm.17-.459c-.383 0-.623-.164-.623-.491 0-.302.214-.504.737-.554l.787-.063v.164c0 .579-.34.944-.9.944Zm4.421-2.694v1.624c0 .66-.296 1.007-.837 1.007-.454 0-.737-.252-.737-.913v-1.718h-.592v1.913c0 .756.403 1.24 1.121 1.24.453 0 .862-.22 1.039-.54l.063.465h.529v-3.078h-.586Zm3.207-.026a1.428 1.428 0 0 0-.315-.037c-.422 0-.73.214-.856.535l-.038-.466h-.554V35h.592v-1.63c0-.592.346-.932.906-.932h.265v-.542Zm1.332 3.18c.497 0 .92-.22 1.077-.573l.063.497h.503v-1.933c0-.83-.516-1.234-1.278-1.234-.793 0-1.322.422-1.322 1.064h.516c0-.371.284-.591.781-.591.416 0 .724.182.724.698v.089l-.97.075c-.724.057-1.145.41-1.145.976 0 .56.39.931 1.051.931Zm.17-.46c-.384 0-.623-.164-.623-.491 0-.302.214-.504.736-.554l.787-.063v.164c0 .579-.34.944-.9.944Zm2.884.384v-1.63c0-.599.322-.995.876-.995.453 0 .742.252.742.875V35h.592v-1.882c0-.787-.371-1.285-1.183-1.285-.435 0-.825.208-1.02.56l-.063-.471h-.535V35h.591Zm3.899 0v-2.581h.604v-.497h-.604v-.964h-.592v.964h-.605v.497h.605V35h.592Z" fill="#201B19"/></svg>
